packages/icons/src/assets/server-upgrade.svg

<svg xmlns="http://www.w3.org/2000/svg" width="24" height="24"><g clip-path="url(#a)"><path d="M6 10.5H4.5V12H6zm3 0H7.5V12H9z"/><path d="M3 12.75v-3c0-.412.337-.75.75-.75h13.5c.413 0 .75.338.75.75v.75h1.5v-.75a2.23 2.23 0 0 0-.585-1.5 2.23 2.23 0 0 0 .585-1.5v-3a2.257 2.257 0 0 0-2.25-2.25H3.75A2.257 2.257 0 0 0 1.5 3.75v3c0 .577.225 1.103.585 1.5a2.23 2.23 0 0 0-.585 1.5v3c0 .578.225 1.102.585 1.5a2.23 2.23 0 0 0-.585 1.5v3A2.257 2.257 0 0 0 3.75 21h7.5v-1.5h-7.5a.75.75 0 0 1-.75-.75v-3c0-.412.337-.75.75-.75h7.5v-1.5h-7.5a.75.75 0 0 1-.75-.75m0-9c0-.413.337-.75.75-.75h13.5c.413 0 .75.337.75.75v3c0 .412-.337.75-.75.75H3.75A.75.75 0 0 1 3 6.75z"/><path d="M6 16.5H4.5V18H6zm3 0H7.5V18H9zm-3-12H4.5V6H6zm3 0H7.5V6H9zm8.25 7.5A5.256 5.256 0 0 0 12 17.25a5.256 5.256 0 0 0 5.25 5.25 5.256 5.256 0 0 0 5.25-5.25A5.256 5.256 0 0 0 17.25 12m0 9c-2.07 0-3.75-1.68-3.75-3.75s1.68-3.75 3.75-3.75S21 15.18 21 17.25 19.32 21 17.25 21"/><path d="M15.188 17.205h1.29V19.5h1.544v-2.295h1.29L17.25 15z"/></g><defs><clipPath id="a"><path d="M0 0h24v24H0z"/></clipPath></defs></svg>

<svg width="100%" height="100%" viewBox="0 0 24 24" version="1.1" xmlns="http://www.w3.org/2000/svg" xmlns:xlink="http://www.w3.org/1999/xlink" xml:space="preserve" style="fill-rule:evenodd;clip-rule:evenodd;stroke-linejoin:round;stroke-miterlimit:2;"><path d="M6,10.5L4.5,10.5L4.5,12L6,12L6,10.5ZM9,10.5L7.5,10.5L7.5,12L9,12L9,10.5Z" style="fill-rule:nonzero;"/><path d="M3,12.75L3,9.75C3,9.338 3.337,9 3.75,9L17.25,9C17.663,9 18,9.338 18,9.75L18,10.5L19.5,10.5L19.5,9.75C19.499,9.195 19.29,8.66 18.915,8.25C19.29,7.84 19.499,7.305 19.5,6.75L19.5,3.75C19.496,2.517 18.483,1.504 17.25,1.5L3.75,1.5C2.517,1.504 1.504,2.517 1.5,3.75L1.5,6.75C1.5,7.327 1.725,7.853 2.085,8.25C1.71,8.66 1.501,9.195 1.5,9.75L1.5,12.75C1.5,13.328 1.725,13.852 2.085,14.25C1.71,14.66 1.501,15.195 1.5,15.75L1.5,18.75C1.504,19.983 2.517,20.996 3.75,21L11.25,21L11.25,19.5L3.75,19.5C3.339,19.5 3,19.161 3,18.75L3,15.75C3,15.338 3.337,15 3.75,15L11.25,15L11.25,13.5L3.75,13.5C3.339,13.5 3,13.161 3,12.75M3,3.75C3,3.337 3.337,3 3.75,3L17.25,3C17.663,3 18,3.337 18,3.75L18,6.75C18,7.162 17.663,7.5 17.25,7.5L3.75,7.5C3.339,7.5 3,7.161 3,6.75L3,3.75Z" style="fill-rule:nonzero;"/><path d="M6,16.5L4.5,16.5L4.5,18L6,18L6,16.5ZM9,16.5L7.5,16.5L7.5,18L9,18L9,16.5ZM6,4.5L4.5,4.5L4.5,6L6,6L6,4.5ZM9,4.5L7.5,4.5L7.5,6L9,6L9,4.5ZM17.25,12C14.371,12.003 12.003,14.371 12,17.25C12.003,20.129 14.371,22.497 17.25,22.5C20.129,22.497 22.497,20.129 22.5,17.25C22.497,14.371 20.129,12.003 17.25,12M17.25,21C15.18,21 13.5,19.32 13.5,17.25C13.5,15.18 15.18,13.5 17.25,13.5C19.32,13.5 21,15.18 21,17.25C21,19.32 19.32,21 17.25,21" style="fill-rule:nonzero;"/><path d="M15.188,17.205L16.478,17.205L16.478,19.5L18.022,19.5L18.022,17.205L19.312,17.205L17.25,15L15.188,17.205Z" style="fill-rule:nonzero;"/></svg>
